X:1
T:Harvest Time
T:Lance Brenton Latham
T:Harvest Time
T:Public Domain
T:Public Domain
T:Public Domain
C:Lance Brenton Latham
Z:Public Domain
%%score ( 1 2 ) ( 3 4 )
L:1/8
M:4/4
K:E
V:1 treble 
V:2 treble 
V:3 bass 
V:4 bass 
V:1
 [GB]2 | [EG]2 [EB]2 [EG]3 [DF] | [DF]2 E4 [DF]2 | [EG]2 [FA]2 [GB]2 [Ac]2 | [GB]6 [EG]2 | %5
w: 1.~The|har- vest fields are|bend- ing With|cious rip- ened grain;|More reap-|
w: 2.~The|call must now be|heed- ed, We|not say Him nay;|Since He|
w: 3.~We‘ll|come a- gain re-|joic- ing, A|er‘s crown to gain;|The Har-|
 [FA]2 [FA]2 [DB]3 [FA] | [EG]2 [GB]4 [EG]2 | [DF]2 [DB]2 [Ec]3 [Fd] | (D4 A4) || %9
w: ers now are need-|ed, Ere Christ|comes back a- gain.|Har- *|
w: has died to save|them, We must|go forth to- day.||
w: vest Home is com-|ing, When Christ|comes back a- gain.||
"^Refrain" [GB]2 [Ac]2 [GB]4 | [EG]2 [EA]2 [EG]4 | E2 E2 E>F [EG]>[FA] | (G2 G2 G4) | %13
w: time! Har- vest|time! Pre- cious|Gos- pel seed is sown. Reap-|ers * *|
w: ||||
w: ||||
 [FA]2 [GB]2 [FA]4 | [DF]2 [EG]2 [DF]4 | [EG]2 [EG]2 [EG]>[DF] [CE]>[EG] | %16
w: Je- sus, King,|must have His|own, His loved ones; Soon He‘ll|
w: |||
w: |||
 [DB]2 [Ec]2 [CA]2 [DB]2 | [EB]2 [Ec]2 [EB]4 | [EG]2 [EA]2 [EG]4 | E2 E2 E>[EF] [EG]>[FA] | %20
w: come! Soon He‘ll come!|Come and catch|a- way His|Bride, His own! His own! His|
w: ||||
w: ||||
 [GB]6 [Ac]2 | G2 G2 G2 [Ac]2 | G2 G2 G2 [Ac]2 | G4 A4 | [Ge]6 |] %25
w: |||||
w: |||||
w: |||||
V:2
 x2 | x8 | x2 E4 x2 | x8 | x8 | x8 | x8 | x8 | B8 || x8 | x8 | E2 E2 E2 x2 | B8 | x8 | x8 | x8 | %16
w: ||pre-||||||vest|||ers go! Reap-|go!||||
w: ||can-||||||||||||||
w: ||reap-||||||||||||||
 x8 | x8 | x8 | E2 E2 E2 x2 | x8 | B6 x2 | B6 x2 | e8- | x6 |] %25
w: |||own! * *||||||
w: |||||||||
w: |||||||||
V:3
 [E,E]2 | [E,B,]2 [E,G,]2 [B,,B,]3 [B,,A,] | [B,,A,]2 [E,G,]4 [B,,B,]2 | %3
w: ~|~ ~ ~ ~|~ ~ ~|
 [E,B,]2 [E,B,]2 [E,E]2 [E,E]2 | [E,E]6 [E,B,]2 | [B,,B,]2 [B,,B,]2 [B,,F,]3 [B,,B,] | %6
w: ~ ~ ~ ~|~ ~|~ ~ ~ ~|
 [E,B,]2 [E,E]4 [E,B,]2 | [F,B,]2 [F,B,]2 [F,^A,]3 [F,A,] | (B,4 D4) || [E,E]2 [E,E]2 [E,E]4 | %10
w: ~ ~ ~|~ ~ ~ ~|~ *|cious Gos- pel|
 [E,B,]2 [E,C]2 [E,B,]4 | [E,G,]2 [E,G,]2 G,>A, [E,B,]2 | [E,E]2 [E,E]2 [E,E]4 | %13
w: seed is sown.|~ ~ ~ ~ ~|~ ~ ~|
 [B,,D]2 [B,,D]2 [B,,D]4 | [B,,B,]2 [B,,B,]2 [B,,B,]4 | %15
w: ~ ~ ~|~ ~ ~|
 [E,B,]2 [E,B,]2 [C,^A,]>[C,A,] [F,A,]>[F,A,] | [B,,B,]2 [B,,A,]2 [B,,F,]2 [B,,A,]2 | %17
w: ~ ~ ~ ~ ~ ~|~ ~ ~ ~|
 [E,G,]2 [E,A,]2 [E,G,]4 | [E,B,]2 [E,C]2 [E,B,]4 | [E,G,]2 [E,G,]2 [E,G,]>[E,A,] [E,B,]>[E,B,] | %20
w: ~ ~ ~|~ ~ ~|~ ~ ~ ~ ~ ~|
 [E,E]6 z2 | z2 [E,E]2 [E,E]2 z2 | z2 [E,E]2 [E,E]2 [A,E]2 | (E2 B,2) [A,,A,C]4 | [E,B,]6 |] %25
w: His|own! His|own! ~ His|own! * *||
V:4
 x2 | x8 | x8 | x8 | x8 | x8 | x8 | x8 | B,,8 || x8 | x8 | x4 E,2 x2 | x8 | x8 | x8 | x8 | x8 | %17
w: ||||||||Pre-|||~||||||
 x8 | x8 | x8 | x8 | x8 | x8 | E,4 x4 | x6 |] %25
w: ||||||||

